X: 39761
T: Thane's
R: hornpipe
M: 4/4
K: Gminor
D/=E/^F/|:G^FGB AG^FD|GABc d4|edce dcBG|cBAG ^FA D2|
G^FGB AG^FD|GABc d4|edce dcBG|A2 d2 G2 z2:|
|:ABAB cdeg|GAGA Bcdf|^FGFG ABcB|{AB}A G2 A ^FAGD|
G^FGB AG^FD|GABc d4|edce dcBG|A2 d2 G2 z2:|

